svg/chanu.svg

<?xml version="1.0" encoding="UTF-8" standalone="no"?>
<svg
   xmlns:dc="http://purl.org/dc/elements/1.1/"
   xmlns:cc="http://creativecommons.org/ns#"
   xmlns:rdf="http://www.w3.org/1999/02/22-rdf-syntax-ns#"
   xmlns:svg="http://www.w3.org/2000/svg"
   xmlns="http://www.w3.org/2000/svg"
   version="1.1"
   id="svg9401"
   width="192"
   height="192"
   viewBox="0 0 192 192">
  <metadata
     id="metadata9407">
    <rdf:RDF>
      <cc:Work
         rdf:about="">
        <dc:format>image/svg+xml</dc:format>
        <dc:type
           rdf:resource="http://purl.org/dc/dcmitype/StillImage" />
        <dc:title></dc:title>
      </cc:Work>
    </rdf:RDF>
  </metadata>
  <defs
     id="defs9405" />
  <path
     style="opacity:1;fill:#ffffff;fill-opacity:1;stroke:none;stroke-width:3.91721272;stroke-opacity:1"
     d="M 50.746094,13.18828 A 37.551976,37.551976 0 0 0 13.195938,50.74608 37.551976,37.551976 0 0 0 50.746094,88.29624 H 88.296246 V 50.74608 A 37.551976,37.551976 0 0 0 50.746094,13.18828 Z"
     id="path9954" />
  <path
     style="opacity:1;fill:#ffffff;fill-opacity:1;stroke:none;stroke-width:3.91721272;stroke-opacity:1"
     d="m 141.2539,13.18828 a 37.551976,37.551976 0 0 1 37.55016,37.5578 37.551976,37.551976 0 0 1 -37.55016,37.55016 H 103.70375 V 50.74608 a 37.551976,37.551976 0 0 1 37.55015,-37.5578 z"
     id="path9954-3" />
  <path
     style="opacity:1;fill:#ffffff;fill-opacity:1;stroke:none;stroke-width:3.91721272;stroke-opacity:1"
     d="m 50.746098,178.81172 a 37.551976,37.551976 0 0 1 -37.55016,-37.5578 37.551976,37.551976 0 0 1 37.55016,-37.55016 H 88.29625 v 37.55016 a 37.551976,37.551976 0 0 1 -37.550152,37.5578 z"
     id="path9954-3-7" />
  <path
     style="opacity:1;fill:#ffffff;fill-opacity:1;stroke:none;stroke-width:3.91721272;stroke-opacity:1"
     d="m 141.2539,178.81172 a 37.551976,37.551976 0 0 0 37.55016,-37.5578 37.551976,37.551976 0 0 0 -37.55016,-37.55016 h -37.55015 v 37.55016 a 37.551976,37.551976 0 0 0 37.55015,37.5578 z"
     id="path9954-3-7-5" />
</svg>

<svg xmlns="http://www.w3.org/2000/svg" width="192" height="192" viewBox="0 0 192 192">
    <path d="M50.746 13.188a37.552 37.552 0 0 0-37.55 37.558 37.552 37.552 0 0 0 37.55 37.55h37.55v-37.55a37.552 37.552 0 0 0-37.55-37.558zm90.508 0a37.552 37.552 0 0 1 37.55 37.558 37.552 37.552 0 0 1-37.55 37.55h-37.55v-37.55a37.552 37.552 0 0 1 37.55-37.558zM50.746 178.812a37.552 37.552 0 0 1-37.55-37.558 37.552 37.552 0 0 1 37.55-37.55h37.55v37.55a37.552 37.552 0 0 1-37.55 37.558zm90.508 0a37.552 37.552 0 0 0 37.55-37.558 37.552 37.552 0 0 0-37.55-37.55h-37.55v37.55a37.552 37.552 0 0 0 37.55 37.558z" fill="#fff"/>
</svg>
